packages/tokens/icons/qA/size32Px.svg

<svg viewBox="0 0 32 32" fill="none" xmlns="http://www.w3.org/2000/svg" width="1em" height="1em"><path d="M12.6044 17.4792L12.5211 25.4792C12.5095 26.5918 13.4082 27.5 14.5209 27.5H25.524C25.8252 27.5 26.1103 27.6357 26.3001 27.8694L26.9582 28.6793C27.123 28.8822 27.3705 29 27.6319 29C28.1114 29 28.5 28.6114 28.5 28.1319V17.5C28.5 16.3954 27.6046 15.5 26.5 15.5H14.6043C13.5078 15.5 12.6158 16.3828 12.6044 17.4792Z" stroke="currentColor"/><path d="M24.5 12.5833V4.5C24.5 3.39543 23.6046 2.5 22.5 2.5L6.5 2.5C5.39543 2.5 4.5 3.39543 4.5 4.5V16.6435C4.5 17.3927 5.10732 18 5.85648 18V18C6.2463 18 6.61728 17.8323 6.8748 17.5396L8.33772 15.8772C8.52756 15.6615 8.80105 15.5379 9.08843 15.5379L11 15.5379" stroke="currentColor" stroke-linecap="round"/></svg>

<svg xmlns="http://www.w3.org/2000/svg" fill="none" viewBox="0 0 32 32" width="1em" height="1em"><path stroke="currentColor" d="m12.604 17.48-.083 8a2 2 0 0 0 2 2.02h11.003a1 1 0 0 1 .776.37l.658.81a.868.868 0 0 0 1.542-.548V17.5a2 2 0 0 0-2-2H14.604a2 2 0 0 0-2 1.98Z"/><path stroke="currentColor" stroke-linecap="round" d="M24.5 12.583V4.5a2 2 0 0 0-2-2h-16a2 2 0 0 0-2 2v12.143c0 .75.607 1.357 1.356 1.357v0c.39 0 .761-.168 1.019-.46l1.463-1.663a1 1 0 0 1 .75-.34H11"/></svg>
